X: 197
T:Callaghan's
M:4/4
L:1/8
F:http://blackrosetheband.googlepages.com/ABCTUNES.ABC May 2009
R:reel
K:Dmaj
|AF(3FFF FEDE|~F3E F2dB|AFFF FEDE|FBBA FEE2|
AF(3FFF FEDE|~F3E F2dB|AFFF FEDE|F2EG FDD2||
FAAA AGFG|ABde fee2|fedc BcdB|ABde fddB|
A3B AFFF|ABde fee2|fedc BcdB|ABde fddB||

